X: 12960
T: Fiddler's, The
R: jig
M: 6/8
K: Amajor
|:a|ecc c2B|cAA A2a|ecc cee|fee faa|
ecc c2B|cAA A2e|faa eaa|cBB B2:|
|:a|ecc cee|fee faa|ecc c2a|ecc c2|
[1 f|ecc cee|fee faa|cBB B2a|cBB B2:|
[2 e|faa eae|dad c2e|faa e2a|cBB B2||

